X:1
T:Remeber, Sinful Youth
M:2/2
L:1/4
K:C
 A2| c c A G| A2 G E| G2 G E| G2| A2| c c A G| A3/2- G/2 E G| A4| z2|\
 G2| A A c e| d2 G2| A A c e| d2| e2| d c A G| A2 G E| G2 G E| G2|\
 A2| c c A G| A3/2- G/2 E G| A2||

